X:1
T:Tom Joad
M:4/4
L:1/4
K:F
 E2| F2 A2| B2 A A| G G D/2D/2 E| C4| F2 A2| B2 A F| G4-| G2 D E| F2 A2|\
 B2 A A| G2 D E| C2 C- C| E2 E3/2 D/2| C A, C C| E2 E- D| C2 C2| E2 E D|\
 C A, G, A,| C4-| C z||
